community/site/assets/zoom.svg

<svg fill="none" height="130" viewBox="0 0 160 130" width="160" xmlns="http://www.w3.org/2000/svg" xmlns:xlink="http://www.w3.org/1999/xlink"><clipPath id="a"><path d="m46 50h68v59.1213h-68z"/></clipPath><g clip-path="url(#a)"><g fill="#2d8cff"><path d="m46.0278 93.8555h12.2966s2.41.0617 2.1013 2.9666l-9.0842 9.1459h6.8594s3.3371-.37 3.0284 3.087h-11.8027s-2.5334.123-2.5952-3.087l9.1448-9.0831h-6.8583s-3.4606 0-3.0901-3.0294z"/><path d="m98.8774 69.0865c.0002-3.7751-1.1191-7.4654-3.2162-10.6044-2.0972-3.139-5.0781-5.5855-8.5657-7.0303-3.4877-1.4449-7.3255-1.823-11.028-1.0866-3.7026.7363-7.1036 2.5541-9.7731 5.2234-2.6694 2.6693-4.4874 6.0702-5.224 9.7728-.7365 3.7025-.3586 7.5403 1.086 11.028s3.891 6.4688 7.0299 8.5661c3.1388 2.0973 6.8291 3.2168 10.6042 3.2168 5.062 0 9.9166-2.0108 13.4961-5.59 3.5794-3.5793 5.5905-8.4338 5.5908-13.4958z"/><path d="m68.1036 106.097c-.9167 0-1.8127-.272-2.5749-.781s-1.3562-1.233-1.707-2.08-.4426-1.779-.2637-2.678c.1788-.8987.6202-1.7246 1.2684-2.3727.6482-.6482 1.474-1.0896 2.373-1.2684.899-.1789 1.8309-.0871 2.6778.2637s1.5707.9448 2.08 1.707c.5092.7622.7811 1.6584.7811 2.5744 0 1.23-.4883 2.409-1.3575 3.278s-2.048 1.357-3.2772 1.357zm7.6641-4.635c0-1.5153-.4495-2.9971-1.2916-4.2575-.8422-1.2603-2.0391-2.2427-3.4396-2.8228-1.4004-.58-2.9414-.7318-4.4281-.4361s-2.8523 1.0257-3.9242 2.0975c-1.0718 1.0719-1.8018 2.4375-2.0975 3.9242s-.1439 3.0277.4362 4.4277c.58 1.401 1.5624 2.598 2.8227 3.44 1.2604.842 2.7422 1.292 4.258 1.292 1.0067-.001 2.0036-.199 2.9336-.585.93-.385 1.7749-.95 2.4866-1.662.7116-.712 1.2759-1.558 1.6608-2.488.3848-.93.5826-1.927.5821-2.934z"/><path d="m84.1705 106.097c-.9166 0-1.8126-.272-2.5746-.781-.762-.51-1.3559-1.234-1.7065-2.081-.3507-.847-.4423-1.778-.2633-2.677.1789-.8993.6204-1.725 1.2686-2.3731s1.4741-1.0894 2.3731-1.2681c.899-.1788 1.8308-.0869 2.6776.2639s1.5706.9449 2.0798 1.707.781 1.6583.781 2.5743c0 .609-.1199 1.212-.3529 1.774-.233.563-.5744 1.074-1.0049 1.504s-.9416.772-1.504 1.005-1.1652.352-1.7739.352zm7.6641-4.635c0-1.5153-.4495-2.9971-1.2916-4.2575-.8422-1.2603-2.0391-2.2427-3.4396-2.8228-1.4004-.58-2.9414-.7318-4.4281-.4361s-2.8523 1.0257-3.9242 2.0975c-1.0718 1.0719-1.8018 2.4375-2.0975 3.9242s-.1439 3.0277.4361 4.4277c.5801 1.401 1.5625 2.598 2.8228 3.44 1.2604.842 2.7422 1.292 4.258 1.292 1.0067-.001 2.0036-.199 2.9336-.585.93-.385 1.7749-.95 2.4866-1.662.7116-.712 1.2759-1.558 1.6608-2.488.3848-.93.5826-1.927.582-2.934z"/><path d="m92.5576 93.7948v15.2632s2.9049.551 3.0284-2.535v-6.549s.1235-3.087 3.1508-3.1508c0 0 2.9042.1234 3.0282 3.0273v6.7355s.185 2.72 3.151 2.472v-9.1458s.062-3.2743 3.152-3.0869c0 0 2.595.1852 2.78 2.5951v6.3646s-.247 3.647 3.152 3.275v-9.3947s-.185-5.2532-5.623-5.8705c0 0-3.461-.1235-5.098 2.1012 0 0-3.6193-4.1046-7.941-.9889 0 0-.9889-.9889-2.7804-1.1123z"/></g><path d="m67.4468 62.1348h14.0583s3.4287.3427 3.5426 3.0869v10.6287h-13.6007s-3.8853.4566-4.0002-3.5436z" fill="#fff"/><path d="m91.905 62.1348v13.7305l-6.0578-4.0162v-5.6002z" fill="#fff"/></g></svg>

<svg width="160" height="130" viewBox="0 0 160 130" fill="none" xmlns="http://www.w3.org/2000/svg">
<g clip-path="url(#clip0)">
<path d="M46.0278 93.8555H58.3244C58.3244 93.8555 60.7344 93.9172 60.4257 96.8221L51.3415 105.968H58.2009C58.2009 105.968 61.538 105.598 61.2293 109.055H49.4266C49.4266 109.055 46.8932 109.178 46.8314 105.968L55.9762 96.8849H49.1179C49.1179 96.8849 45.6573 96.8849 46.0278 93.8555Z" fill="#2D8CFF"/>
<path d="M98.8774 69.0865C98.8776 65.3114 97.7583 61.6211 95.6612 58.4821C93.564 55.3431 90.5831 52.8966 87.0955 51.4518C83.6078 50.0069 79.77 49.6288 76.0675 50.3652C72.3649 51.1015 68.9639 52.9193 66.2944 55.5886C63.625 58.2579 61.807 61.6588 61.0704 65.3614C60.3339 69.0639 60.7118 72.9017 62.1564 76.3894C63.601 79.8771 66.0474 82.8582 69.1863 84.9555C72.3251 87.0528 76.0154 88.1723 79.7905 88.1723C84.8525 88.1723 89.7071 86.1615 93.2866 82.5823C96.866 79.003 98.8771 74.1485 98.8774 69.0865Z" fill="#2D8CFF"/>
<path d="M68.1036 106.097C67.1869 106.097 66.2909 105.825 65.5287 105.316C64.7665 104.807 64.1725 104.083 63.8217 103.236C63.4709 102.389 63.3791 101.457 63.558 100.558C63.7368 99.6593 64.1782 98.8334 64.8264 98.1853C65.4746 97.5371 66.3004 97.0957 67.1994 96.9169C68.0984 96.738 69.0303 96.8298 69.8772 97.1806C70.7241 97.5314 71.4479 98.1254 71.9572 98.8876C72.4664 99.6498 72.7383 100.546 72.7383 101.462C72.7383 102.692 72.25 103.871 71.3808 104.74C70.5116 105.609 69.3328 106.097 68.1036 106.097ZM75.7677 101.462C75.7677 99.9467 75.3182 98.4649 74.4761 97.2045C73.6339 95.9442 72.437 94.9618 71.0365 94.3817C69.6361 93.8017 68.0951 93.6499 66.6084 93.9456C65.1217 94.2413 63.7561 94.9713 62.6842 96.0431C61.6124 97.115 60.8824 98.4806 60.5867 99.9673C60.291 101.454 60.4428 102.995 61.0229 104.395C61.6029 105.796 62.5853 106.993 63.8456 107.835C65.106 108.677 66.5878 109.127 68.1036 109.127C69.1103 109.126 70.1072 108.928 71.0372 108.542C71.9672 108.157 72.8121 107.592 73.5238 106.88C74.2354 106.168 74.7997 105.322 75.1846 104.392C75.5694 103.462 75.7672 102.465 75.7667 101.458L75.7677 101.462Z" fill="#2D8CFF"/>
<path d="M84.1705 106.097C83.2539 106.097 82.3579 105.825 81.5959 105.316C80.8339 104.806 80.24 104.082 79.8894 103.235C79.5387 102.388 79.4471 101.457 79.6261 100.558C79.805 99.6587 80.2465 98.833 80.8947 98.1849C81.5429 97.5368 82.3688 97.0955 83.2678 96.9168C84.1668 96.738 85.0986 96.8299 85.9454 97.1807C86.7922 97.5315 87.516 98.1256 88.0252 98.8877C88.5344 99.6498 88.8062 100.546 88.8062 101.462C88.8062 102.071 88.6863 102.674 88.4533 103.236C88.2203 103.799 87.8789 104.31 87.4484 104.74C87.0179 105.17 86.5068 105.512 85.9444 105.745C85.382 105.978 84.7792 106.097 84.1705 106.097ZM91.8346 101.462C91.8346 99.9467 91.3851 98.4649 90.543 97.2045C89.7008 95.9442 88.5039 94.9618 87.1034 94.3817C85.703 93.8017 84.162 93.6499 82.6753 93.9456C81.1886 94.2413 79.823 94.9713 78.7511 96.0431C77.6793 97.115 76.9493 98.4806 76.6536 99.9673C76.3579 101.454 76.5097 102.995 77.0897 104.395C77.6698 105.796 78.6522 106.993 79.9125 107.835C81.1729 108.677 82.6547 109.127 84.1705 109.127C85.1772 109.126 86.1741 108.928 87.1041 108.542C88.0341 108.157 88.879 107.592 89.5907 106.88C90.3023 106.168 90.8666 105.322 91.2515 104.392C91.6363 103.462 91.8341 102.465 91.8335 101.458L91.8346 101.462Z" fill="#2D8CFF"/>
<path d="M92.5576 93.7948V109.058C92.5576 109.058 95.4625 109.609 95.586 106.523V99.974C95.586 99.974 95.7095 96.887 98.7368 96.8232C98.7368 96.8232 101.641 96.9466 101.765 99.8505V106.586C101.765 106.586 101.95 109.306 104.916 109.058V99.9122C104.916 99.9122 104.978 96.6379 108.068 96.8253C108.068 96.8253 110.663 97.0105 110.848 99.4204V105.785C110.848 105.785 110.601 109.432 114 109.06V99.6653C114 99.6653 113.815 94.4121 108.377 93.7948C108.377 93.7948 104.916 93.6713 103.279 95.896C103.279 95.896 99.6597 91.7914 95.338 94.9071C95.338 94.9071 94.3491 93.9182 92.5576 93.7948Z" fill="#2D8CFF"/>
<path d="M67.4468 62.1348H81.5051C81.5051 62.1348 84.9338 62.4775 85.0477 65.2217V75.8504H71.447C71.447 75.8504 67.5617 76.307 67.4468 72.3068V62.1348Z" fill="white"/>
<path d="M91.905 62.1348V75.8653L85.8472 71.8491V66.2489L91.905 62.1348Z" fill="white"/>
</g>
<defs>
<clipPath id="clip0">
<rect width="68" height="59.1213" fill="white" transform="translate(46 50)"/>
</clipPath>
</defs>
</svg>
